images/icons/info.svg

<svg width="24" height="24" viewBox="0 0 24 24" fill="none" xmlns="http://www.w3.org/2000/svg">
<mask id="mask0_418_97" style="mask-type:alpha" maskUnits="userSpaceOnUse" x="0" y="0" width="24" height="24">
<rect width="24" height="24" fill="#D9D9D9"/>
</mask>
<g mask="url(#mask0_418_97)">
<path d="M11 17H13V11H11V17ZM12 9C12.2833 9 12.5208 8.90417 12.7125 8.7125C12.9042 8.52083 13 8.28333 13 8C13 7.71667 12.9042 7.47917 12.7125 7.2875C12.5208 7.09583 12.2833 7 12 7C11.7167 7 11.4792 7.09583 11.2875 7.2875C11.0958 7.47917 11 7.71667 11 8C11 8.28333 11.0958 8.52083 11.2875 8.7125C11.4792 8.90417 11.7167 9 12 9ZM12 22C10.6167 22 9.31667 21.7375 8.1 21.2125C6.88333 20.6875 5.825 19.975 4.925 19.075C4.025 18.175 3.3125 17.1167 2.7875 15.9C2.2625 14.6833 2 13.3833 2 12C2 10.6167 2.2625 9.31667 2.7875 8.1C3.3125 6.88333 4.025 5.825 4.925 4.925C5.825 4.025 6.88333 3.3125 8.1 2.7875C9.31667 2.2625 10.6167 2 12 2C13.3833 2 14.6833 2.2625 15.9 2.7875C17.1167 3.3125 18.175 4.025 19.075 4.925C19.975 5.825 20.6875 6.88333 21.2125 8.1C21.7375 9.31667 22 10.6167 22 12C22 13.3833 21.7375 14.6833 21.2125 15.9C20.6875 17.1167 19.975 18.175 19.075 19.075C18.175 19.975 17.1167 20.6875 15.9 21.2125C14.6833 21.7375 13.3833 22 12 22ZM12 20C14.2333 20 16.125 19.225 17.675 17.675C19.225 16.125 20 14.2333 20 12C20 9.76667 19.225 7.875 17.675 6.325C16.125 4.775 14.2333 4 12 4C9.76667 4 7.875 4.775 6.325 6.325C4.775 7.875 4 9.76667 4 12C4 14.2333 4.775 16.125 6.325 17.675C7.875 19.225 9.76667 20 12 20Z" fill="#035388"/>
</g>
</svg>

<svg fill="none" height="24" viewBox="0 0 24 24" width="24" xmlns="http://www.w3.org/2000/svg" xmlns:xlink="http://www.w3.org/1999/xlink"><mask id="a" height="24" maskUnits="userSpaceOnUse" width="24" x="0" y="0"><path d="m0 0h24v24h-24z" fill="#d9d9d9"/></mask><g mask="url(#a)"><path d="m11 17h2v-6h-2zm1-8c.2833 0 .5208-.09583.7125-.2875s.2875-.42917.2875-.7125-.0958-.52083-.2875-.7125-.4292-.2875-.7125-.2875-.5208.09583-.7125.2875-.2875.42917-.2875.7125.0958.52083.2875.7125.4292.2875.7125.2875zm0 13c-1.3833 0-2.68333-.2625-3.9-.7875s-2.275-1.2375-3.175-2.1375-1.6125-1.9583-2.1375-3.175-.7875-2.5167-.7875-3.9.2625-2.68333.7875-3.9 1.2375-2.275 2.1375-3.175 1.95833-1.6125 3.175-2.1375 2.5167-.7875 3.9-.7875 2.6833.2625 3.9.7875 2.275 1.2375 3.175 2.1375 1.6125 1.95833 2.1375 3.175.7875 2.5167.7875 3.9-.2625 2.6833-.7875 3.9-1.2375 2.275-2.1375 3.175-1.9583 1.6125-3.175 2.1375-2.5167.7875-3.9.7875zm0-2c2.2333 0 4.125-.775 5.675-2.325s2.325-3.4417 2.325-5.675c0-2.23333-.775-4.125-2.325-5.675s-3.4417-2.325-5.675-2.325c-2.23333 0-4.125.775-5.675 2.325s-2.325 3.44167-2.325 5.675c0 2.2333.775 4.125 2.325 5.675s3.44167 2.325 5.675 2.325z" fill="#035388"/></g></svg>
